icons/1_Primary/Heroku.svg

<svg xmlns="http://www.w3.org/2000/svg" width="1024" height="1024" fill="none">
   <g clip-path="url(#a)">
      <path fill="#8C72BD" d="M512 1024c282.77 0 512-229.23 512-512S794.77 0 512 0 0 229.23 0 512s229.23 512 512 512Z"/>
      <path fill="#fff" d="M695.72 256H328.3a45.862 45.862 0 0 0-17.67 3.452 45.894 45.894 0 0 0-24.968 24.967 45.907 45.907 0 0 0-3.452 17.671V722a45.906 45.906 0 0 0 13.448 32.637A45.889 45.889 0 0 0 328.3 768.07h367.42A45.896 45.896 0 0 0 741.79 722V302.09A45.854 45.854 0 0 0 695.72 256Zm20.48 466a20.237 20.237 0 0 1-5.929 14.55 20.244 20.244 0 0 1-14.551 5.93H328.3a20.223 20.223 0 0 1-18.989-12.603A20.247 20.247 0 0 1 307.82 722V302.09a20.245 20.245 0 0 1 12.6-19.005 20.247 20.247 0 0 1 7.88-1.495h367.42a20.241 20.241 0 0 1 14.558 5.937 20.248 20.248 0 0 1 5.922 14.563V722Zm-318.77-30.75L455 640.06l-57.61-51.21.04 102.4Zm207.4-207.37c-10.22-10.24-29.42-23-61.43-23-34.59 0-70.43 9-96 17.92V332.81h-51.23v221.48L432 537.65s58.89-26.88 110.1-26.88c25.6 0 32 14.08 32 26.88v153.62h51.21V537.65c1.28-3.82 1.28-32.03-20.48-53.77ZM537 416h51.21c23-26.88 34.57-53.79 38.41-83.21H575.4c-5.14 29.45-17.94 56.35-38.4 83.21Z"/>
   </g>
   <defs>
      <clipPath id="a">
         <path fill="#fff" d="M0 0h1024v1024H0z"/>
      </clipPath>
   </defs>
</svg>

<svg width="1024" height="1024" viewBox="0 0 1024 1024" fill="none" xmlns="http://www.w3.org/2000/svg">
<g clip-path="url(#clip0_2_2385)">
<path d="M512 1024C794.77 1024 1024 794.77 1024 512C1024 229.23 794.77 0 512 0C229.23 0 0 229.23 0 512C0 794.77 229.23 1024 512 1024Z" fill="#8C72BD"/>
<path d="M695.72 256H328.3C322.24 255.972 316.234 257.145 310.63 259.452C305.025 261.758 299.933 265.152 295.648 269.438C291.363 273.723 287.969 278.815 285.662 284.419C283.356 290.024 282.183 296.03 282.21 302.09V722C282.187 728.058 283.363 734.062 285.671 739.663C287.979 745.265 291.373 750.354 295.658 754.637C299.943 758.92 305.033 762.312 310.636 764.617C316.238 766.923 322.242 768.096 328.3 768.07H695.72C701.777 768.094 707.779 766.918 713.379 764.612C718.979 762.305 724.067 758.912 728.35 754.629C732.633 750.347 736.025 745.259 738.332 739.658C740.639 734.058 741.814 728.057 741.79 722V302.09C741.822 296.03 740.652 290.024 738.349 284.419C736.045 278.814 732.653 273.722 728.369 269.436C724.085 265.15 718.994 261.756 713.39 259.449C707.786 257.143 701.78 255.971 695.72 256ZM716.2 722C716.231 724.698 715.723 727.375 714.704 729.874C713.686 732.372 712.179 734.642 710.271 736.55C708.363 738.458 706.093 739.966 703.594 740.984C701.095 742.002 698.418 742.511 695.72 742.48H328.3C325.602 742.514 322.923 742.007 320.424 740.989C317.924 739.972 315.653 738.465 313.744 736.556C311.836 734.648 310.328 732.377 309.311 729.877C308.294 727.377 307.787 724.699 307.82 722V302.09C307.786 299.39 308.291 296.71 309.308 294.209C310.325 291.707 311.831 289.434 313.74 287.524C315.648 285.613 317.92 284.104 320.42 283.085C322.921 282.066 325.6 281.558 328.3 281.59H695.72C698.42 281.559 701.099 282.068 703.599 283.088C706.099 284.108 708.37 285.617 710.278 287.527C712.186 289.437 713.693 291.709 714.71 294.21C715.727 296.711 716.234 299.39 716.2 302.09V722ZM397.43 691.25L455 640.06L397.39 588.85L397.43 691.25ZM604.83 483.88C594.61 473.64 575.41 460.88 543.4 460.88C508.81 460.88 472.97 469.88 447.4 478.8V332.81H396.17V554.29L432 537.65C432 537.65 490.89 510.77 542.1 510.77C567.7 510.77 574.1 524.85 574.1 537.65V691.27H625.31V537.65C626.59 533.83 626.59 505.62 604.83 483.88ZM537 416H588.21C611.21 389.12 622.78 362.21 626.62 332.79H575.4C570.26 362.24 557.46 389.14 537 416Z" fill="white"/>
</g>
<defs>
<clipPath id="clip0_2_2385">
<rect width="1024" height="1024" fill="white"/>
</clipPath>
</defs>
</svg>
